packages/kaspersky-hexa-ui-icons/src/iconsSVGs/16/StackedChartColumn.svg

<svg width="16" height="16" viewBox="0 0 16 16" fill="none" xmlns="http://www.w3.org/2000/svg">
<path fill-rule="evenodd" clip-rule="evenodd" d="M14.9122 10.17C14.9122 10.9708 14.263 11.62 13.4622 11.62H12.2585C11.4577 11.62 10.8085 10.9708 10.8085 10.17V3.18291C10.8085 2.3821 11.4577 1.73291 12.2585 1.73291H13.4622C14.263 1.73291 14.9122 2.3821 14.9122 3.18291L14.9122 10.17ZM13.4622 10.32C13.5451 10.32 13.6122 10.2529 13.6122 10.17V8.79779H12.1085V10.17C12.1085 10.2529 12.1756 10.32 12.2585 10.32H13.4622ZM12.1085 7.49779V3.18291C12.1085 3.10007 12.1756 3.03291 12.2585 3.03291L13.4622 3.03291C13.5451 3.03291 13.6122 3.10007 13.6122 3.18291V7.49779H12.1085Z" fill="black"/>
<path d="M14.3851 12.9466C14.7441 12.946 15.0356 13.2365 15.0361 13.5955C15.0367 13.9545 14.7462 14.246 14.3872 14.2466L1.61491 14.267C1.25593 14.2676 0.964444 13.977 0.963868 13.6181C0.963293 13.2591 1.25384 12.9676 1.61283 12.967L14.3851 12.9466Z" fill="black"/>
<path fill-rule="evenodd" clip-rule="evenodd" d="M8.53987 11.62C9.34068 11.62 9.98987 10.9708 9.98987 10.17L9.98987 6.80221C9.98987 6.00139 9.34068 5.35221 8.53987 5.35221H7.33611C6.5353 5.35221 5.88611 6.00139 5.88611 6.80221V10.17C5.88611 10.9709 6.5353 11.62 7.33611 11.62H8.53987ZM8.68987 10.17C8.68987 10.2529 8.62271 10.32 8.53987 10.32H7.33611C7.25327 10.32 7.18611 10.2529 7.18611 10.17V6.80221C7.18611 6.71936 7.25327 6.65221 7.33611 6.65221H8.53987C8.62271 6.65221 8.68987 6.71936 8.68987 6.80221L8.68987 10.17Z" fill="black"/>
<path fill-rule="evenodd" clip-rule="evenodd" d="M5.06763 10.17C5.06763 10.9708 4.41844 11.62 3.61763 11.62H2.41387C1.61306 11.62 0.96387 10.9708 0.96387 10.17L0.963871 4.19031C0.963871 3.3895 1.61306 2.74031 2.41387 2.74031L3.61763 2.74031C4.41844 2.74031 5.06763 3.3895 5.06763 4.19031V10.17ZM3.61763 10.32C3.70047 10.32 3.76763 10.2529 3.76763 10.17L3.76763 6.65008H2.26387L2.26387 10.17C2.26387 10.2529 2.33103 10.32 2.41387 10.32H3.61763ZM3.76763 4.19031V5.35008H2.26387V4.19031C2.26387 4.10747 2.33103 4.04031 2.41387 4.04031H3.61763C3.70047 4.04031 3.76763 4.10747 3.76763 4.19031Z" fill="black"/>
</svg>

<svg xmlns="http://www.w3.org/2000/svg" width="16" height="16" fill="none" viewBox="0 0 16 16"><path fill="#000" fill-rule="evenodd" d="M14.9123 10.17c0 .8008-.6491 1.45-1.45 1.45h-1.2037c-.8008 0-1.45-.6492-1.45-1.45V3.1829c0-.8009.6492-1.45 1.45-1.45h1.2037c.8009 0 1.45.6491 1.45 1.45zm-9.8445 0c0 .8008-.6492 1.45-1.45 1.45H2.414c-.8008 0-1.45-.6492-1.45-1.45V4.1903c0-.8009.6492-1.45 1.45-1.45h1.2037c.8009 0 1.45.6491 1.45 1.45zm7.0408-2.6723V3.183a.15.15 0 0 1 .15-.15h1.2037a.15.15 0 0 1 .15.15v4.3148zM3.7678 4.1903V5.35H2.264V4.1903a.15.15 0 0 1 .15-.15h1.2037a.15.15 0 0 1 .15.15M8.54 11.62c.8008 0 1.45-.6492 1.45-1.45V6.8022c0-.8009-.6492-1.45-1.45-1.45H7.3362c-.8008 0-1.45.6491-1.45 1.45V10.17c0 .8008.6492 1.45 1.45 1.45zm-4.9222-1.3a.15.15 0 0 0 .15-.15V6.65H2.264v3.52a.15.15 0 0 0 .15.15zm5.0722-.15a.15.15 0 0 1-.15.15H7.3362a.15.15 0 0 1-.15-.15V6.8022a.15.15 0 0 1 .15-.15H8.54a.15.15 0 0 1 .15.15zm4.7723.15a.15.15 0 0 0 .15-.15V8.7977h-1.5037V10.17a.15.15 0 0 0 .15.15zm.9229 2.6265a.65.65 0 0 1 .0021 1.3L1.615 14.267a.65.65 0 0 1-.002-1.3z"/></svg>
